resources/payment_methods/perfectmoney/icon.svg

<?xml version="1.0" encoding="UTF-8" standalone="no"?>
<svg width="300px" height="300px" viewBox="0 0 300 300" version="1.1" xmlns="http://www.w3.org/2000/svg" xmlns:xlink="http://www.w3.org/1999/xlink">
    <!-- Generator: Sketch 3.8.1 (29687) - http://www.bohemiancoding.com/sketch -->
    <title>perfect_money</title>
    <desc>Created with Sketch.</desc>
    <defs></defs>
    <g id="Page-1" stroke="none" stroke-width="1" fill="none" fill-rule="evenodd">
        <g id="perfect_money">
            <circle id="Oval-1" fill="#E33E23" cx="150" cy="150" r="150"></circle>
            <path d="M34.4563597,151.947402 C34.4563597,151.947402 101.233566,166.364927 110.617139,135.331271 C119.817581,104.903272 89.3063846,98.6102617 89.3063846,98.6102617 L75.902774,98.6102617 L75.902774,149.6324 L61.5404501,149.6324 L61.5404501,100.268819 L48.8229386,100.268819 L48.8229386,95.052578 C48.8229386,95.052578 97.0060455,94.8607154 102.326546,95.4827242 C129.078682,98.6102618 142.098657,146.536232 99.2532576,156.086042 C65.9282492,163.513853 34.4563597,151.947402 34.4563597,151.947402 Z M61.4592319,162.939397 L61.4592319,193.566579 C61.4592319,193.566579 61.3754119,200.083735 55.4964413,200.083732 C49.6174706,200.08373 48.1767819,200.083732 48.1767819,200.083732 L48.1767819,205.195691 L89.6239921,205.195691 L89.6239921,199.571443 L80.4554488,199.571443 C80.4554488,199.571443 75.7262338,199.035063 75.7262338,194.226352 C75.7262338,189.41764 75.7262338,162.65752 75.7262338,162.65752 L61.541221,162.65752 L61.4592319,162.939397 Z M114.432044,205.449261 L156.176977,205.449261 L156.176977,199.048528 L144.17686,199.048528 C144.17686,199.048528 140.278578,196.846797 140.278577,192.388507 C140.278577,187.930218 140.278577,115.303872 140.278577,115.303872 L186.806838,205.352384 L232.322296,117.028147 L231.322296,193.224209 C231.322296,193.224209 232.463905,199.521671 226.024116,199.521666 C219.584327,199.521661 218.218509,199.716532 218.218509,199.716532 L218.140562,204.619892 L259.887149,204.619892 L259.887149,198.791238 L250.142405,198.791238 C250.142405,198.791238 246.080239,199.189601 246.080231,194.729063 C246.080222,190.268525 246.080231,102.247448 246.080231,102.247448 C246.080231,102.247448 246.140469,100.227064 249.735208,100.227064 L258.195243,100.227064 L258.195243,93.9977627 L232.293562,93.9977627 L189.649329,182.37621 L147.27134,94.6219156 L124.094167,94.6219156 L124.094167,99.9034627 L131.453071,99.9034627 C131.453071,99.9034627 134.004821,99.6223213 134.004822,103.500383 C134.004823,107.378446 133.004822,192.798758 133.004822,192.798758 C133.004822,192.798758 133.341232,199.429271 126.062858,199.429269 C118.784485,199.429266 114.447295,199.429269 114.447295,199.429269 L114.447295,205.873999 L114.432044,205.449261 Z" id="Combined-Shape" fill="#FFFFFF"></path>
        </g>
    </g>
</svg>

<?xml version="1.0" encoding="UTF-8"?>
<svg version="1.1" viewBox="0 0 300 300" xmlns="http://www.w3.org/2000/svg">
<title>perfect_money</title>
<desc>Created with Sketch.</desc>
<g fill="none" fill-rule="evenodd">
<circle cx="150" cy="150" r="150" fill="#E33E23"/>
<path d="m34.456 151.95s66.777 14.418 76.161-16.616c9.2004-30.428-21.311-36.721-21.311-36.721h-13.404v51.022h-14.362v-49.364h-12.718v-5.2162s48.183-0.19186 53.504 0.43015c26.752 3.1275 39.772 51.054-3.0733 60.603-33.325 7.4278-64.797-4.1386-64.797-4.1386zm27.003 10.992v30.627s-0.08382 6.5172-5.9628 6.5172c-5.879-2e-6 -7.3197 0-7.3197 0v5.112h41.447v-5.6242h-9.1685s-4.7292-0.53638-4.7292-5.3451v-31.569h-14.185l-0.081989 0.28188zm52.973 42.51h41.745v-6.4007h-12s-3.8983-2.2017-3.8983-6.66v-77.085l46.528 90.049 45.515-88.324-1 76.196s1.1416 6.2975-5.2982 6.2975-7.8056 0.19487-7.8056 0.19487l-0.077947 4.9034h41.747v-5.8287h-9.7447s-4.0622 0.39836-4.0622-4.0622c-9e-6 -4.4605 0-92.482 0-92.482s0.060238-2.0204 3.655-2.0204h8.46v-6.2293h-25.902l-42.644 88.378-42.378-87.754h-23.177v5.2815h7.3589s2.5518-0.28114 2.5518 3.5969c1e-6 3.8781-1 89.298-1 89.298s0.33641 6.6305-6.942 6.6305c-7.2784-3e-6 -11.616 0-11.616 0v6.4447l-0.015251-0.42474z" fill="#fff"/>
</g>
</svg>
